wagtail_fa_svg/templates/wagtail-fa-svg/v6/solid/robot.svg

<svg id="icon-robot" viewbox="0 0 640 512" xmlns="http://www.w3.org/2000/svg"><!--! Font Awesome Free 6.6.0 by @fontawesome - https://fontawesome.com License - https://fontawesome.com/license/free (Icons: CC BY 4.0, Fonts: SIL OFL 1.1, Code: MIT License) Copyright 2024 Fonticons, Inc. --><path d="M320 0c17.7 0 32 14.3 32 32l0 64 120 0c39.8 0 72 32.2 72 72l0 272c0 39.8-32.2 72-72 72l-304 0c-39.8 0-72-32.2-72-72l0-272c0-39.8 32.2-72 72-72l120 0 0-64c0-17.7 14.3-32 32-32zM208 384c-8.8 0-16 7.2-16 16s7.2 16 16 16l32 0c8.8 0 16-7.2 16-16s-7.2-16-16-16l-32 0zm96 0c-8.8 0-16 7.2-16 16s7.2 16 16 16l32 0c8.8 0 16-7.2 16-16s-7.2-16-16-16l-32 0zm96 0c-8.8 0-16 7.2-16 16s7.2 16 16 16l32 0c8.8 0 16-7.2 16-16s-7.2-16-16-16l-32 0zM264 256a40 40 0 1 0 -80 0 40 40 0 1 0 80 0zm152 40a40 40 0 1 0 0-80 40 40 0 1 0 0 80zM48 224l16 0 0 192-16 0c-26.5 0-48-21.5-48-48l0-96c0-26.5 21.5-48 48-48zm544 0c26.5 0 48 21.5 48 48l0 96c0 26.5-21.5 48-48 48l-16 0 0-192 16 0z"></path></svg>

<svg id="icon-robot" viewbox="0 0 640 512" xmlns="http://www.w3.org/2000/svg"><!--! Font Awesome Free 6.5.2 by @fontawesome - https://fontawesome.com License - https://fontawesome.com/license/free (Icons: CC BY 4.0, Fonts: SIL OFL 1.1, Code: MIT License) Copyright 2024 Fonticons, Inc. --><path d="M320 0c17.7 0 32 14.3 32 32V96H472c39.8 0 72 32.2 72 72V440c0 39.8-32.2 72-72 72H168c-39.8 0-72-32.2-72-72V168c0-39.8 32.2-72 72-72H288V32c0-17.7 14.3-32 32-32zM208 384c-8.8 0-16 7.2-16 16s7.2 16 16 16h32c8.8 0 16-7.2 16-16s-7.2-16-16-16H208zm96 0c-8.8 0-16 7.2-16 16s7.2 16 16 16h32c8.8 0 16-7.2 16-16s-7.2-16-16-16H304zm96 0c-8.8 0-16 7.2-16 16s7.2 16 16 16h32c8.8 0 16-7.2 16-16s-7.2-16-16-16H400zM264 256a40 40 0 1 0 -80 0 40 40 0 1 0 80 0zm152 40a40 40 0 1 0 0-80 40 40 0 1 0 0 80zM48 224H64V416H48c-26.5 0-48-21.5-48-48V272c0-26.5 21.5-48 48-48zm544 0c26.5 0 48 21.5 48 48v96c0 26.5-21.5 48-48 48H576V224h16z"></path></svg>
